projects/samara/images/icons/popup-telegram.svg

<svg width="33" height="33" viewBox="0 0 33 33" fill="none" xmlns="http://www.w3.org/2000/svg">
<path d="M16.5 33C7.38705 33 0 25.6129 0 16.5C0 7.38705 7.38705 0 16.5 0C25.6129 0 33 7.38705 33 16.5C33 25.6129 25.6129 33 16.5 33ZM11.3685 18.4305L11.3899 18.4189L12.8254 23.1545C13.0102 23.6676 13.2643 23.76 13.5729 23.7171C13.8831 23.6758 14.0464 23.5092 14.2494 23.3145L16.2096 21.4203L20.4171 24.5355C21.186 24.9596 21.7388 24.7401 21.9302 23.8227L24.6642 10.9164C24.9662 9.7152 24.4382 9.2334 23.5059 9.6162L7.44645 15.8202C6.35085 16.2591 6.35745 16.8729 7.24845 17.1451L11.3685 18.4321V18.4305Z" fill="#268EC8"/>
</svg>

<svg width="33" height="33" fill="none" xmlns="http://www.w3.org/2000/svg"><path d="M16.5 33C7.387 33 0 25.613 0 16.5S7.387 0 16.5 0 33 7.387 33 16.5 25.613 33 16.5 33zm-5.132-14.57l.022-.011 1.435 4.735c.185.514.44.606.748.563.31-.041.473-.208.676-.402l1.96-1.895 4.208 3.115c.769.425 1.322.205 1.513-.712l2.734-12.907c.302-1.2-.226-1.683-1.158-1.3L7.446 15.82c-1.095.44-1.089 1.053-.198 1.325l4.12 1.287v-.002z" fill="#268EC8"/></svg>
